public/img/menu-phone.svg

<svg width="24" height="24" viewBox="0 0 24 24" fill="none" xmlns="http://www.w3.org/2000/svg">
<path d="M10.4 19.2C14.1333 17.3333 17.2 14.1333 19.2 10.4L16.2667 7.46667C15.8667 7.06672 15.7334 6.53333 16 6.13333C16.5333 4.66667 16.8 3.06672 16.8 1.33333C16.8 0.533333 17.3333 0 18.1333 0H22.6667C23.4667 0 24 0.533333 24 1.33333C24 13.8667 13.8667 24 1.33333 24C0.533333 24 0 23.4667 0 22.6667L0 18C0 17.2 0.533333 16.6667 1.33333 16.6667C2.93333 16.6667 4.53333 16.4 6.13333 15.8667C6.53333 15.7333 7.06667 15.8667 7.46667 16.1333L10.4 19.2Z" fill="white"/>
</svg>

<svg width="24" height="24" viewBox="0 0 24 24" fill="none" xmlns="http://www.w3.org/2000/svg"><path d="M10.4 19.2c3.733-1.867 6.8-5.067 8.8-8.8l-2.933-2.933c-.4-.4-.534-.934-.267-1.334.533-1.466.8-3.066.8-4.8 0-.8.533-1.333 1.333-1.333h4.534C23.467 0 24 .533 24 1.333 24 13.867 13.867 24 1.333 24 .533 24 0 23.467 0 22.667V18c0-.8.533-1.333 1.333-1.333 1.6 0 3.2-.267 4.8-.8.4-.134.934 0 1.334.266L10.4 19.2z" fill="#fff"/></svg>
